packages/admin/admin-icons/icons/online.svg

<svg xmlns="http://www.w3.org/2000/svg" width="16" height="16" viewBox="0 0 16 16"><path fill="#232323" d="M9.05925153,0.246850663 C9.32189055,-0.200491829 9.98408939,0.0032606043 9.99121461,0.482945653 L9.98461647,0.576028592 L9.073,6.5 L11.5,6.5 C11.8552784,6.5 12.0875855,6.85500423 11.9698797,7.17179596 L11.9330299,7.24997025 L9.73897982,11.0507795 C9.60092506,11.2899353 9.29513549,11.3718939 9.05597969,11.2338392 C8.84339676,11.1111238 8.75501903,10.8558773 8.83496428,10.6327041 L8.87292006,10.5508391 L10.633,7.5 L8.49043062,7.5 C8.2146322,7.5 7.99723698,7.27874906 7.990485,7.01369987 L7.99624477,6.92397141 L8.599,3.005 L5.373,8.5 L7.59330144,8.5 C7.86909986,8.5 8.08649508,8.72125094 8.09324706,8.98630013 L8.08748728,9.07602859 L7.08748728,15.5760286 C7.04549785,15.8489599 6.79020415,16.0361753 6.51727284,15.9941858 C6.27466724,15.9568619 6.09978779,15.7510013 6.09341135,15.5140269 L6.09911559,15.4239714 L7.01,9.5 L4.5,9.5 C4.14321088,9.5 3.91096783,9.14227562 4.031269,8.82507587 L4.0688209,8.74685066 L9.05925153,0.246850663 Z"/></svg>

<svg width="16" height="16" fill="none" viewBox="0 0 16 16">
  <path fill="#242424" d="M9.06.249c.262-.448.924-.244.931.236l-.006.093-.912 5.924H11.5a.5.5 0 0 1 .47.672l-.037.078-2.194 3.8a.5.5 0 0 1-.904-.418l.038-.081 1.76-3.051H8.49a.5.5 0 0 1-.5-.487l.006-.09.603-3.918-3.226 5.495h2.22a.5.5 0 0 1 .5.486l-.005.09-1 6.5a.5.5 0 0 1-.995-.062l.006-.09.911-5.924H4.5a.5.5 0 0 1-.469-.675l.038-.078 4.99-8.5Z"/>
</svg>
